X:273
T: Edeldame und Bettelmann (36a), S. 124
N: T0162
O: Luxemburg
S: Singendes Volk, Esch-Alzette 1937 posth.]
N: Straen, fff Witry, 10.1.1933
R: Liebeslieder]
M: 2/4
L: 1/8
K: G
D | D2GG | GGGB | AGFG | A2
G2 | A2d2 | dcBA | A2GC | D2
D2 | D2Dd | d2d2 | cBAG | c2
d2 | BBBB | A2G2 | B2AA | G2z

@@@ Tune index: 8327
